svgs/light/cruzeiro-sign.svg

<svg xmlns="http://www.w3.org/2000/svg" viewBox="0 0 384 512"><!--! Font Awesome Pro 6.0.0-alpha3 by @fontawesome - https://fontawesome.com License - https://fontawesome.com/license (Commercial License) --><path d="M379.2 391.7c6.283 6.219 6.346 16.34 .125 22.62C337.4 456.7 281.5 480 222.1 480c0 0 .0313 0 0 0c-59.36 0-115.2-23.33-157.2-65.66c-86.56-87.31-86.56-229.4 0-316.7c41.98-42.33 97.82-65.66 157.2-65.66c59.43-.0156 115.3 23.31 157.3 65.66c6.221 6.281 6.158 16.41-.125 22.62c-6.252 6.25-16.38 6.156-22.63-.0938c-35.92-36.23-83.69-56.2-134.5-56.19c-50.8 0-98.53 19.95-134.5 56.19c-74.28 74.89-74.28 196.7 0 271.6c20.69 20.87 45.38 36.14 72.24 45.5V240c0-8.844 7.159-16 16.01-16S191.9 231.2 191.9 240v16.4C205.3 246.3 221.9 240 239.1 240c32.23 0 61.18 19.17 73.74 48.86c3.439 8.141-.3751 17.53-8.503 20.97c-8.222 3.375-17.54-.3281-21.01-8.5C276.7 283.5 259.3 272 239.1 272C213.5 272 191.9 293.5 191.9 320v125.4C201.8 446.1 211.9 448 222.1 448c50.8 0 98.57-19.95 134.5-56.19C362.8 385.6 372.1 385.5 379.2 391.7z"/></svg>

<svg xmlns="http://www.w3.org/2000/svg" viewBox="0 0 384 512"><!-- Font Awesome Pro 6.0.0-alpha2 by @fontawesome - https://fontawesome.com License - https://fontawesome.com/license (Commercial License) --><path d="M379.248 391.719C385.531 397.937 385.594 408.062 379.373 414.344C337.359 456.688 281.527 480 222.131 480C222.131 480 222.131 480 222.1 480C162.736 480 106.904 456.672 64.921 414.344C-21.64 327.031 -21.64 184.969 64.921 97.656C106.904 55.328 162.736 32 222.1 32C281.527 31.984 337.359 55.312 379.373 97.656C385.594 103.938 385.531 114.062 379.248 120.281C372.996 126.531 362.867 126.437 356.615 120.187C320.697 83.953 272.93 63.984 222.131 64C171.333 64 123.597 83.953 87.679 120.187C13.403 195.078 13.403 316.922 87.679 391.812C108.371 412.686 133.062 427.951 159.922 437.316V240C159.922 231.156 167.081 224 175.928 224S191.933 231.156 191.933 240V256.402C205.348 246.252 221.862 240 239.95 240C272.18 240 301.127 259.172 313.694 288.859C317.133 297 313.319 306.391 305.191 309.828C296.97 313.203 287.654 309.5 284.184 301.328C276.65 283.516 259.3 272 239.95 272C213.472 272 191.933 293.531 191.933 320V445.387C201.845 446.977 211.899 448 222.131 448C272.93 448 320.697 428.047 356.615 391.812C362.805 385.562 372.996 385.469 379.248 391.719Z"/></svg>
